public/images/case-studies/filemaker/architecture-bg-hashtag.svg

<svg width="586" height="564" viewBox="0 0 586 564" fill="none" xmlns="http://www.w3.org/2000/svg">
<g clip-path="url(#clip0)">
<path d="M512.978 344.043L434.345 351.114L441.601 263.999L505.247 258.275C538.946 255.245 562.81 226.784 559.783 193.223C556.755 159.661 528.197 135.914 494.506 138.944L449.574 142.985L457.501 63.3274C462.294 32.8215 437.14 5.00925 402.769 0.581803C372.151 -4.18326 344.211 20.8851 339.75 55.1208L329.762 153.76L213.686 164.198L221.613 84.5405C226.415 54.0346 201.27 26.2223 166.899 21.7949C136.271 17.0298 108.332 42.0981 103.871 76.3329L93.8739 174.973L-7.20695 184.064C-40.9065 187.095 -64.7614 215.555 -61.7426 249.117C-58.7148 282.679 -22.6683 305.752 11.0313 302.721L89.6547 295.65L82.4078 382.764L18.7531 388.486C-14.9465 391.522 -38.8014 419.982 -35.7737 453.546C-32.7549 487.101 -4.18805 510.85 29.5026 507.823L74.4263 503.775L66.5165 583.441C61.7151 613.942 86.8598 641.757 121.231 646.181C144.36 651.617 180.12 629.605 184.259 591.644L194.238 493.002L310.314 482.57L302.396 562.226C297.585 592.727 322.739 620.542 357.11 624.966C380.249 630.411 416.008 608.399 420.129 570.429L430.126 471.797L531.216 462.698C564.915 459.671 588.761 431.212 585.742 397.647C571.49 365.097 542.933 341.351 512.978 344.043ZM314.533 361.889L198.475 372.328L205.722 285.212L321.789 274.774L314.533 361.889Z" fill="url(#paint0_linear)" fill-opacity="0.5"/>
<path d="M432.978 351.489L432.798 353.614L434.926 353.422L513.752 346.345C542.614 343.754 570.604 366.586 584.775 398.66C587.549 431.134 564.408 458.607 531.712 461.538L430.374 470.635L428.892 470.77L428.748 472.24L418.736 570.962H418.727C416.715 589.426 407.017 604.01 394.975 613.322C382.879 622.671 368.663 626.561 357.753 623.998L357.663 623.971L357.573 623.962C323.845 619.624 299.644 592.492 304.259 563.217L304.268 563.164L304.277 563.119L312.216 483.381L312.431 481.23L310.267 481.427L193.914 491.87L192.432 492.004L192.28 493.474L182.276 592.187C182.276 592.196 182.276 592.196 182.276 592.196C180.264 610.66 170.548 625.244 158.515 634.557C146.428 643.905 132.213 647.786 121.293 645.232L121.203 645.205L121.105 645.196C87.376 640.858 63.1841 613.726 67.7998 584.452L67.8088 584.398L67.8178 584.344L75.747 504.615L75.9625 502.464L73.8074 502.652L28.773 506.695C-4.03065 509.644 -31.7876 486.599 -34.724 454C-37.6605 421.4 -14.4833 393.775 18.3114 390.835L82.1229 385.099L83.6224 384.964L83.7482 383.467L91.0129 296.271L91.1926 294.146L89.0643 294.337L10.2474 301.414C-6.19482 302.891 -23.2567 298.003 -36.565 288.643C-49.8642 279.288 -59.2932 265.555 -60.748 249.386C-63.6934 216.786 -40.5071 189.166 -7.71243 186.221L93.6171 177.121L95.1078 176.988L95.2515 175.516L105.255 76.8135C109.646 43.2926 136.936 19.2162 166.382 23.7901L166.408 23.7938L166.426 23.7964C200.164 28.1356 224.347 55.264 219.74 84.5436L219.731 84.5937L219.722 84.6439L211.775 164.373L211.568 166.531L213.724 166.336L330.086 155.889L331.558 155.756L331.711 154.284L341.724 55.5812C346.106 22.0602 373.396 -2.01612 402.832 2.55785L402.859 2.56153L402.886 2.56422C436.615 6.90336 460.816 34.0317 456.2 63.3113L456.182 63.3614V63.4125L448.244 143.142L448.028 145.299L450.192 145.104L495.236 141.06C528.03 138.115 555.778 161.162 558.715 193.762C561.66 226.363 538.474 253.983 505.679 256.928L441.877 262.657L440.377 262.792L440.251 264.294L432.978 351.489ZM314.82 364.207L316.328 364.072L316.454 362.57L323.728 275.376L323.899 273.251L321.77 273.442L205.417 283.889L203.918 284.025L203.792 285.526L196.518 372.72L196.339 374.845L198.476 374.655L314.82 364.207Z" stroke="#EBECEE" stroke-opacity="0.3" stroke-width="4"/>
</g>
<defs>
<linearGradient id="paint0_linear" x1="234.163" y1="14.2967" x2="289.768" y2="632.658" gradientUnits="userSpaceOnUse">
<stop stop-color="#F8F8F8"/>
<stop offset="1" stop-color="#E9E7E7"/>
</linearGradient>
<clipPath id="clip0">
<rect width="586" height="564" fill="white"/>
</clipPath>
</defs>
</svg>

<svg xmlns="http://www.w3.org/2000/svg" width="586" height="564" fill="none" xmlns:v="https://vecta.io/nano"><g clip-path="url(#B)"><path d="M512.978 344.043l-78.633 7.071 7.256-87.115 63.646-5.724c33.699-3.03 57.563-31.491 54.536-65.052s-31.586-57.309-65.277-54.279l-44.932 4.041 7.927-79.658C462.294 32.822 437.14 5.009 402.769.582c-30.618-4.765-58.558 20.303-63.019 54.539l-9.988 98.639-116.076 10.438 7.927-79.658c4.802-30.506-20.343-58.318-54.714-62.746-30.628-4.765-58.567 20.303-63.028 54.538l-9.997 98.64-101.081 9.091c-33.7 3.031-57.554 31.491-54.536 65.053 3.028 33.562 39.074 56.635 72.774 53.604l78.623-7.071-7.247 87.114-63.655 5.722c-33.7 3.036-57.555 31.496-54.527 65.06 3.019 33.555 31.586 57.304 65.276 54.277l44.924-4.048-7.91 79.666c-4.801 30.501 20.343 58.316 54.715 62.74 23.129 5.436 58.889-16.576 63.028-54.537l9.979-98.642 116.076-10.432-7.918 79.656c-4.811 30.501 20.343 58.316 54.714 62.74 23.139 5.445 58.898-16.567 63.019-54.537l9.997-98.632 101.09-9.099c33.699-3.027 57.545-31.486 54.526-65.051-14.252-32.55-42.809-56.296-72.764-53.604zm-198.445 17.846l-116.058 10.439 7.247-87.116 116.067-10.438-7.256 87.115z" fill="url(#A)" fill-opacity=".5"/><path d="M432.978 351.489l-.18 2.125 2.128-.192 78.826-7.077c28.862-2.591 56.852 20.241 71.023 52.315 2.774 32.474-20.367 59.947-53.063 62.878l-101.338 9.097-1.482.135-.144 1.47-10.012 98.722h-.009c-2.012 18.464-11.71 33.048-23.752 42.36-12.096 9.349-26.312 13.239-37.222 10.676l-.09-.027-.09-.009c-33.728-4.338-57.929-31.47-53.314-60.745l.009-.053.009-.045 7.939-79.738.215-2.151-2.164.197-116.353 10.443-1.482.134-.152 1.47-10.004 98.713c-2.012 18.473-11.728 33.057-23.761 42.37-12.087 9.348-26.302 13.229-37.222 10.675l-.09-.027-.098-.009c-33.729-4.338-57.921-31.47-53.305-60.744l.009-.054.009-.054 7.929-79.729.216-2.151-2.155.188-45.034 4.043C-4.031 509.644-31.788 486.599-34.724 454s20.241-60.225 53.035-63.165l63.812-5.736 1.499-.135.126-1.497 7.265-87.196.18-2.125-2.128.191-78.817 7.077c-16.442 1.477-33.504-3.411-46.812-12.771-13.299-9.355-22.728-23.088-24.183-39.257-2.945-32.6 20.241-60.22 53.036-63.165l101.33-9.1 1.491-.133.144-1.472 10.004-98.702c4.391-33.521 31.681-57.597 61.127-53.023l.026.004.018.003c33.738 4.339 57.921 31.468 53.314 60.747l-.009.05-.009.05-7.947 79.729-.207 2.158 2.156-.195 116.362-10.447 1.472-.133.153-1.472 10.013-98.703c4.382-33.521 31.672-57.597 61.108-53.023l.027.004.027.003c33.729 4.339 57.93 31.467 53.314 60.747l-.018.05v.051l-7.938 79.73-.216 2.157 2.164-.195 45.044-4.044c32.794-2.945 60.542 20.102 63.479 52.702 2.945 32.601-20.241 60.221-53.036 63.166l-63.802 5.729-1.5.135-.126 1.502-7.273 87.195zM314.82 364.207l1.508-.135.126-1.502 7.274-87.194.171-2.125-2.129.191-116.353 10.447-1.499.136-.126 1.501-7.274 87.194-.179 2.125 2.137-.19 116.344-10.448z" stroke="#ebecee" stroke-opacity=".3" stroke-width="4"/></g><defs><linearGradient id="A" x1="234.163" y1="14.297" x2="289.768" y2="632.658" gradientUnits="userSpaceOnUse"><stop stop-color="#f8f8f8"/><stop offset="1" stop-color="#e9e7e7"/></linearGradient><clipPath id="B"><path fill="#fff" d="M0 0h586v564H0z"/></clipPath></defs></svg>
